X: 1
T: Clog de Champagne
C: Joseph Plante
R: hornpipe
D: Folkways, Masters of French Canadian Music, v.4
F: http://mustrad.udenap.org/partitions/TQ280.jpg
Z: 2010 John Chambers <jc:trillian.mit.edu>
M: C|
L: 1/8
K: A
c>d \
| (3ece a>f e>c c>A | B>c d>B F2 B>A | G>e c>E F>d B>G |1,3 (3AcB (3AGF E2 \
                                                      :|2,4 A2 c2 A2 "Fine"y :|
|: (3EFG \
| A>G A>c B>A F>B | A>G A>c e2 (3cec | B>e d>B G>e d>B | A>G A>c e3 (3EFG |
| A>G A>c B>A F>B | A>G A>c e2 (3cec | B>c d>B G>E F>G |1 A>a e>c A2 :|2 A2 c2 "D.C. al Fine"A2 y4 |]
